X:0930
T:Three good Fellows.
M:9/8
L:1/8
Q:3/8=120
I: || ||
Z:Jack Campin * www.campin.me.uk * 2009
K:B Minor
d|B3  FBc d2  e|A3  EAc  e2 f|d`c`B FBc dfd|edc  cf^A B2||
f|b2B d2f d'c'b|c'2e c2e ac'a|d'c'b agf edc|dcB ^AfF  B2|]

